X:57
T:Kieran O'Hare's
R:reel
C:Paul S. Cranford
O:Cape Breton Island
S:http://www.cranfordpub.com
D:currently unrecorded
B:currently unpublished in book form
Z:psc
H:                                                        copyrights Cranford Publications, SOCAN
L:1/8
Q:333
M:C|
K:F
e|fc c/c/c AFFA|BGAF EGce|fc c/c/c AFFc|BGce f2 ag|
fcdB AFcA|BGAc BGEc|fcdB AFBG|AFCE F2 F:|
|:D|CF F/F/F AFFc|BGAc BGEG|CF F/F/F AFFc|BGCE F2 FD|
CF F/F/F AFFc|BGAc BGEc|fcdB AFBG|[1AFCE F2 F:|[2Acde f2 f|]
